svg/fluentui-system-icons/ic_fluent_cursor_prohibited_20_regular.svg

<svg width="20" height="20" viewBox="0 0 20 20" fill="none" xmlns="http://www.w3.org/2000/svg">
<path d="M10 5.5C10 7.98528 12.0147 10 14.5 10C16.9853 10 19 7.98528 19 5.5C19 3.01472 16.9853 1 14.5 1C12.0147 1 10 3.01472 10 5.5ZM11 5.5C11 3.567 12.567 2 14.5 2C15.2862 2 16.0118 2.2592 16.5961 2.69681L11.6968 7.59609C11.2592 7.0118 11 6.28617 11 5.5ZM14.5 9C13.7138 9 12.9882 8.7408 12.4039 8.30319L17.3032 3.40391C17.7408 3.9882 18 4.71383 18 5.5C18 7.433 16.433 9 14.5 9ZM17.0061 12.1217L15.5275 10.9042C15.9268 10.8287 16.3108 10.7101 16.6746 10.5534L17.6418 11.3497C18.3661 11.9461 17.9444 13.1217 17.0061 13.1217H11.4142C10.9788 13.1217 10.5648 13.3109 10.2799 13.6402L6.75622 17.7127C6.15025 18.413 5 17.9844 5 17.0583V3.05952C5 2.21445 5.98325 1.75037 6.63564 2.28753L9.12343 4.33592C9.04257 4.71114 9 5.1006 9 5.5L9.00008 5.52971L6 3.05952L6 17.0583L9.52369 12.9859C9.99856 12.4371 10.6885 12.1217 11.4142 12.1217H17.0061Z" fill="#212121"/>
</svg>

<svg xmlns="http://www.w3.org/2000/svg" width="20" height="20"><path d="M10 5.5a4.5 4.5 0 1 0 9 0 4.5 4.5 0 0 0-9 0Zm1 0a3.5 3.5 0 0 1 5.596-2.803l-4.9 4.9A3.485 3.485 0 0 1 11 5.5ZM14.5 9c-.786 0-1.512-.26-2.096-.697l4.9-4.9A3.5 3.5 0 0 1 14.5 9Zm2.506 3.122-1.479-1.218c.4-.075.784-.194 1.148-.35l.967.796c.724.596.302 1.772-.636 1.772h-5.592a1.5 1.5 0 0 0-1.134.518l-3.524 4.073c-.606.7-1.756.271-1.756-.655V3.06a1 1 0 0 1 1.636-.772l2.487 2.048C9.043 4.71 9 5.1 9 5.5v.03L6 3.06v13.998l3.524-4.072a2.5 2.5 0 0 1 1.89-.864h5.592Z"/></svg>
